X:493
T: O ICH HABE DEINE STIMME
N: F0937
O: Europa, Mitteleuropa, Deutschland
R: Liebes - Lied
M: 4/4
L: 1/16
K: E
B3B | B2G2g2f2e2d2c2B2 | BcGAA4z4
A3A | A2F2f2e2d2c2B2A2 | A4G4z4
E3E | F2D2E4A2F2G4 | c4B4
e6e2 | cededcBAG4F4 | E8z4

@@@ Tune index: 5924
